src/icons/outline/symbols/check.svg

<svg width="24" height="24" viewBox="0 0 24 24" fill="none" xmlns="http://www.w3.org/2000/svg">
<g clip-path="url(#clip0_402_285)">
<path d="M9.95201 20.5C9.57201 20.5 9.22124 20.3446 8.94841 20.0532L2.693 13.2636C2.42018 12.9625 2.43967 12.506 2.73198 12.234C3.02429 11.962 3.49198 11.9815 3.7648 12.2729L9.93252 18.9653L20.1633 3.82232C20.3874 3.49207 20.8454 3.39494 21.1767 3.62806C21.508 3.85146 21.6054 4.30799 21.3715 4.63824L11.0823 19.8784C10.8387 20.2377 10.4587 20.4611 10.0494 20.4903C10.0105 20.4903 9.98124 20.4903 9.94226 20.4903L9.95201 20.5Z" fill="#212121"/>
</g>
<defs>
<clipPath id="clip0_402_285">
<rect width="24" height="24" fill="white"/>
</clipPath>
</defs>
</svg>

<svg xmlns="http://www.w3.org/2000/svg" width="24" height="24" fill="none" viewBox="0 0 24 24"><g clip-path="url(#a)"><path fill="currentColor" d="M9.952 20.5c-.38 0-.73-.155-1.004-.447l-6.255-6.79a.73.73 0 0 1 .039-1.029.737.737 0 0 1 1.033.039l6.168 6.692 10.23-15.143a.726.726 0 0 1 1.014-.194c.331.223.428.68.195 1.01l-10.29 15.24c-.243.36-.623.583-1.033.612h-.107z"/></g><defs><clipPath id="a"><path fill="currentColor" d="M0 0h24v24H0z"/></clipPath></defs></svg>
